Yaru++/actions/16/zoom.svg

<svg height="24" width="24" xmlns="http://www.w3.org/2000/svg">
  <g fill="#808080" transform="matrix(1.1146719 0 0 1.1146719 2.885328 2.885328)">
    <path d="m7.5 1a6.508 6.508 0 0 0 -6.5 6.5c0 3.584 2.916 6.5 6.5 6.5s6.5-2.916 6.5-6.5-2.916-6.5-6.5-6.5zm0 1.04c3.022 0 5.46 2.438 5.46 5.46s-2.438 5.46-5.46 5.46a5.454 5.454 0 0 1 -5.461-5.46c0-3.022 2.44-5.46 5.461-5.46z"/>
    <path d="m11.853 11.146-.707.708 3.5 3.5.707-.708z" fill-rule="evenodd"/>
    <path d="m7 5v2h-2v1h2v2h1v-2h2v-1h-2v-2z"/>
  </g>
</svg>

<svg xmlns="http://www.w3.org/2000/svg" width="24" height="24" version="1.1">
 <g font-weight="400" transform="matrix(1.1146719,0,0,1.1146719,2.8853281,2.8853276)" style="font-weight:400;fill:#808080">
  <path d="M 7.5,1 A 6.508,6.508 0 0 0 1,7.5 C 1,11.084 3.916,14 7.5,14 11.084,14 14,11.084 14,7.5 14,3.916 11.084,1 7.5,1 Z m 0,1.04 c 3.022,0 5.46,2.438 5.46,5.46 0,3.022 -2.438,5.46 -5.46,5.46 A 5.454,5.454 0 0 1 2.039,7.5 c 0,-3.022 2.44,-5.46 5.461,-5.46 z" overflow="visible" style="fill:#808080"/>
  <path style="fill:#808080;fill-rule:evenodd" d="m 11.853,11.146 -0.707,0.708 3.5,3.5 0.707,-0.708 z" overflow="visible"/>
  <path d="M 7,5 V 7 H 5 v 1 h 2 v 2 H 8 V 8 h 2 V 7 H 8 V 5 Z" overflow="visible" style="fill:#808080"/>
 </g>
</svg>
